SVG_Azure_All/Kubernetes Storage.svg

<?xml version="1.0" encoding="UTF-8" standalone="no"?>
<!-- Generated by Microsoft Visio, SVG Export Kubernetes Storage.svg Page-1 -->

<svg
   xmlns:dc="http://purl.org/dc/elements/1.1/"
   xmlns:cc="http://creativecommons.org/ns#"
   xmlns:rdf="http://www.w3.org/1999/02/22-rdf-syntax-ns#"
   xmlns:svg="http://www.w3.org/2000/svg"
   xmlns="http://www.w3.org/2000/svg"
   xmlns:sodipodi="http://sodipodi.sourceforge.net/DTD/sodipodi-0.dtd"
   xmlns:inkscape="http://www.inkscape.org/namespaces/inkscape"
   width="0.70863593in"
   height="0.78743809in"
   viewBox="0 0 51.02182 56.695779"
   xml:space="preserve"
   class="st7"
   version="1.1"
   id="svg55"
   sodipodi:docname="Kubernetes Storage.svg"
   style="font-size:12px;overflow:visible;color-interpolation-filters:sRGB;fill:none;fill-rule:evenodd;stroke-linecap:square;stroke-miterlimit:3"
   inkscape:version="0.92.5 (2060ec1f9f, 2020-04-08)"><metadata
   id="metadata59"><rdf:RDF><cc:Work
       rdf:about=""><dc:format>image/svg+xml</dc:format><dc:type
         rdf:resource="http://purl.org/dc/dcmitype/StillImage" /></cc:Work></rdf:RDF></metadata><sodipodi:namedview
   pagecolor="#ffffff"
   bordercolor="#666666"
   borderopacity="1"
   objecttolerance="10"
   gridtolerance="10"
   guidetolerance="10"
   inkscape:pageopacity="0"
   inkscape:pageshadow="2"
   inkscape:window-width="640"
   inkscape:window-height="480"
   id="namedview57"
   showgrid="false"
   inkscape:zoom="1.4192873"
   inkscape:cx="34.015858"
   inkscape:cy="37.784909"
   inkscape:window-x="0"
   inkscape:window-y="0"
   inkscape:window-maximized="0"
   inkscape:current-layer="svg55" />
	<style
   type="text/css"
   id="style2">
	<![CDATA[
		.st1 {fill:url(#grad0-6);stroke:none;stroke-linecap:butt;stroke-width:34}
		.st2 {fill:#341a6e;stroke:none;stroke-linecap:butt;stroke-width:34}
		.st3 {fill:#b796f9;stroke:none;stroke-linecap:butt;stroke-width:34}
		.st4 {fill:url(#grad0-14);stroke:none;stroke-linecap:butt;stroke-width:34}
		.st5 {fill:#003067;stroke:none;stroke-linecap:butt;stroke-width:34}
		.st6 {fill:#83b9f9;stroke:none;stroke-linecap:butt;stroke-width:34}
		.st7 {fill:none;fill-rule:evenodd;font-size:12px;overflow:visible;stroke-linecap:square;stroke-miterlimit:3}
	]]>
	</style>

	<defs
   id="Patterns_And_Gradients">
		<linearGradient
   id="grad0-6"
   x1="0"
   y1="65.191633"
   x2="36.794878"
   y2="65.191633"
   gradientTransform="scale(0.81777686,1.2228275)"
   gradientUnits="userSpaceOnUse">
			<stop
   offset="0"
   stop-color="#773adc"
   stop-opacity="1"
   id="stop4" />
			<stop
   offset="1"
   stop-color="#a67af4"
   stop-opacity="1"
   id="stop6" />
		</linearGradient>
		<linearGradient
   id="grad0-14"
   x1="0"
   y1="65.226771"
   x2="36.785151"
   y2="65.226771"
   gradientTransform="scale(0.81799311,1.2225042)"
   gradientUnits="userSpaceOnUse">
			<stop
   offset="0"
   stop-color="#0078d4"
   stop-opacity="1"
   id="stop9" />
			<stop
   offset="1"
   stop-color="#5ea0ef"
   stop-opacity="1"
   id="stop11" />
		</linearGradient>
	</defs>
	<g
   id="g53"
   transform="translate(-34.000209,-33.998519)">
		<title
   id="title15">Page-1</title>
		<g
   id="group3516-1"
   transform="translate(34,-34.0157)">
			<title
   id="title17">Kubernetes Storage</title>
			<g
   id="group3517-2">
				<title
   id="title19">Sheet.3517</title>
				<g
   id="shape3518-3"
   transform="translate(0,-11.7039)">
					<title
   id="title21">Sheet.3518</title>
					<path
   d="m 18.86,92.86 a 3.74887,3.6378 0 0 1 3.81,-3.43 h 7.42 V 81.25 A 1.66184,1.6126 -180 0 0 28.35,79.72 H 1.73 A 1.65859,1.60945 -180 0 0 0,81.25 v 41.94 a 1.66184,1.6126 -180 0 0 1.74,1.52 h 17.12 z"
   class="st1"
   id="path23"
   inkscape:connector-curvature="0"
   style="fill:url(#grad0-6);stroke:none;stroke-width:34;stroke-linecap:butt" />
				</g>
				<g
   id="shape3519-7"
   transform="translate(4.41426,-33.9622)">
					<title
   id="title26">Sheet.3519</title>
					<path
   d="m 3.27,114.33 h 11.31 a 3.80081,3.68819 0 0 1 3.67,-2.64 h 3.14 a 3.38859,3.28819 -180 0 0 0.13,-0.87 3.45026,3.34803 -180 0 0 -3.27,-3.49 H 3.27 a 3.45026,3.34803 -180 0 0 -3.27,3.49 3.45026,3.34803 -180 0 0 3.27,3.51 z m 11.18,3.38 H 3.27 a 3.44702,3.34488 -180 0 0 -3.27,3.5 3.44702,3.34488 -180 0 0 3.27,3.5 h 11.18 z"
   class="st2"
   id="path28"
   inkscape:connector-curvature="0"
   style="fill:#341a6e;stroke:none;stroke-width:34;stroke-linecap:butt" />
				</g>
				<g
   id="shape3520-9"
   transform="translate(7.36783,-35.8289)">
					<title
   id="title31">Sheet.3520</title>
					<path
   d="m 4.11,112.69 a 2.40837,2.33701 0 1 1 -2.4,-2.34 2.40512,2.33386 0 0 1 2.4,2.34 z m 0,10.37 a 2.40837,2.33701 0 1 1 -2.4,-2.34 2.40837,2.33701 0 0 1 2.4,2.34 z"
   class="st3"
   id="path33"
   inkscape:connector-curvature="0"
   style="fill:#b796f9;stroke:none;stroke-width:34;stroke-linecap:butt" />
				</g>
				<g
   id="shape3521-11"
   transform="translate(20.932)">
					<title
   id="title36">Sheet.3521</title>
					<path
   d="m 1.66,124.71 h 26.78 a 1.65859,1.60945 -180 0 0 1.65,-1.52 V 81.26 A 1.65859,1.60945 -180 0 0 28.44,79.74 H 1.66 A 1.66184,1.6126 -180 0 0 0,81.26 v 41.93 a 1.66184,1.6126 -180 0 0 1.66,1.52 z"
   class="st4"
   id="path38"
   inkscape:connector-curvature="0"
   style="fill:url(#grad0-14);stroke:none;stroke-width:34;stroke-linecap:butt" />
				</g>
				<g
   id="shape3522-15"
   transform="translate(25.356,-22.2425)">
					<title
   id="title41">Sheet.3522</title>
					<path
   d="m 21.52,121.21 a 3.45026,3.34803 0 0 1 -3.27,3.5 H 3.27 a 3.45026,3.34803 0 0 1 -3.27,-3.5 3.45026,3.34803 0 0 1 3.27,-3.5 h 14.98 a 3.45026,3.34803 0 0 1 3.27,3.5 z m 0,-10.4 a 3.45026,3.34803 -180 0 0 -3.27,-3.5 H 3.27 a 3.45026,3.34803 -180 0 0 -3.27,3.51 3.45351,3.35118 -180 0 0 3.27,3.51 h 14.98 a 3.45351,3.35118 -180 0 0 3.27,-3.51 z"
   class="st5"
   id="path43"
   inkscape:connector-curvature="0"
   style="fill:#003067;stroke:none;stroke-width:34;stroke-linecap:butt" />
				</g>
				<g
   id="shape3523-17"
   transform="translate(28.3086,-24.1007)">
					<title
   id="title46">Sheet.3523</title>
					<path
   d="m 4.11,112.68 a 2.40837,2.33701 0 1 1 -2.41,-2.33 2.40837,2.33701 0 0 1 2.41,2.33 z m -2.41,8.04 a 2.40837,2.33701 -180 1 0 2.41,2.33 2.40512,2.33386 -180 0 0 -2.41,-2.33 z"
   class="st6"
   id="path48"
   inkscape:connector-curvature="0"
   style="fill:#83b9f9;stroke:none;stroke-width:34;stroke-linecap:butt" />
				</g>
			</g>
		</g>
	</g>
</svg>

<?xml version="1.0" encoding="UTF-8" standalone="no"?>
<!DOCTYPE svg PUBLIC "-//W3C//DTD SVG 1.1//EN" "http://www.w3.org/Graphics/SVG/1.1/DTD/svg11.dtd">
<!-- Generated by Microsoft Visio, SVG Export Kubernetes Storage.svg Page-1 -->
<svg xmlns="http://www.w3.org/2000/svg" xmlns:xlink="http://www.w3.org/1999/xlink" xmlns:ev="http://www.w3.org/2001/xml-events"
		width="1.65311in" height="1.73209in" viewBox="0 0 119.024 124.711" xml:space="preserve" color-interpolation-filters="sRGB"
		class="st7">
	<style type="text/css">
	<![CDATA[
		.st1 {fill:url(#grad0-6);stroke:none;stroke-linecap:butt;stroke-width:34}
		.st2 {fill:#341a6e;stroke:none;stroke-linecap:butt;stroke-width:34}
		.st3 {fill:#b796f9;stroke:none;stroke-linecap:butt;stroke-width:34}
		.st4 {fill:url(#grad0-14);stroke:none;stroke-linecap:butt;stroke-width:34}
		.st5 {fill:#003067;stroke:none;stroke-linecap:butt;stroke-width:34}
		.st6 {fill:#83b9f9;stroke:none;stroke-linecap:butt;stroke-width:34}
		.st7 {fill:none;fill-rule:evenodd;font-size:12px;overflow:visible;stroke-linecap:square;stroke-miterlimit:3}
	]]>
	</style>

	<defs id="Patterns_And_Gradients">
		<linearGradient id="grad0-6" x1="0" y1="0" x2="1" y2="0" gradientTransform="rotate(-90 0.5 0.5)">
			<stop offset="0" stop-color="#773adc" stop-opacity="1"/>
			<stop offset="1" stop-color="#a67af4" stop-opacity="1"/>
		</linearGradient>
		<linearGradient id="grad0-14" x1="0" y1="0" x2="1" y2="0" gradientTransform="rotate(-90 0.5 0.5)">
			<stop offset="0" stop-color="#0078d4" stop-opacity="1"/>
			<stop offset="1" stop-color="#5ea0ef" stop-opacity="1"/>
		</linearGradient>
	</defs>
	<g>
		<title>Page-1</title>
		<g id="group3456-1" transform="translate(34,-34.0157)">
			<title>Kubernetes Storage</title>
			<g id="group3457-2">
				<title>Sheet.3457</title>
				<g id="shape3458-3" transform="translate(-2.57794E-13,-11.7039)">
					<title>Sheet.3458</title>
					<path d="M18.86 92.86 A3.74887 3.6378 0 0 1 22.67 89.43 L30.09 89.43 L30.09 81.25 A1.66184 1.6126 -180 0 0 28.35
								 79.72 L1.73 79.72 A1.65859 1.60945 -180 0 0 0 81.25 L0 123.19 A1.66184 1.6126 -180 0 0 1.74 124.71
								 L18.86 124.71 L18.86 92.86 Z" class="st1"/>
				</g>
				<g id="shape3459-7" transform="translate(4.41426,-33.9622)">
					<title>Sheet.3459</title>
					<path d="M3.27 114.33 L14.58 114.33 A3.80081 3.68819 0 0 1 18.25 111.69 L21.39 111.69 A3.38859 3.28819 -180 0
								 0 21.52 110.82 A3.45026 3.34803 -180 0 0 18.25 107.33 L3.27 107.33 A3.45026 3.34803 -180 0 0 0 110.82
								 A3.45026 3.34803 -180 0 0 3.27 114.33 ZM14.45 117.71 L3.27 117.71 A3.44702 3.34488 -180 0 0 0 121.21
								 A3.44702 3.34488 -180 0 0 3.27 124.71 L14.45 124.71 L14.45 117.71 Z" class="st2"/>
				</g>
				<g id="shape3460-9" transform="translate(7.36783,-35.8289)">
					<title>Sheet.3460</title>
					<path d="M4.11 112.69 A2.40837 2.33701 0 1 1 1.71 110.35 A2.40512 2.33386 0 0 1 4.11 112.69 ZM4.11 123.06 A2.40837
								 2.33701 0 1 1 1.71 120.72 A2.40837 2.33701 0 0 1 4.11 123.06 Z" class="st3"/>
				</g>
				<g id="shape3461-11" transform="translate(20.932,1.42109E-14)">
					<title>Sheet.3461</title>
					<path d="M1.66 124.71 L28.44 124.71 A1.65859 1.60945 -180 0 0 30.09 123.19 L30.09 81.26 A1.65859 1.60945 -180
								 0 0 28.44 79.74 L1.66 79.74 A1.66184 1.6126 -180 0 0 0 81.26 L0 123.19 A1.66184 1.6126 -180 0 0
								 1.66 124.71 Z" class="st4"/>
				</g>
				<g id="shape3462-15" transform="translate(25.356,-22.2425)">
					<title>Sheet.3462</title>
					<path d="M21.52 121.21 A3.45026 3.34803 0 0 1 18.25 124.71 L3.27 124.71 A3.45026 3.34803 0 0 1 -0 121.21 A3.45026
								 3.34803 0 0 1 3.27 117.71 L18.25 117.71 A3.45026 3.34803 0 0 1 21.52 121.21 ZM21.52 110.81 A3.45026
								 3.34803 -180 0 0 18.25 107.31 L3.27 107.31 A3.45026 3.34803 -180 0 0 0 110.82 A3.45351 3.35118 -180
								 0 0 3.27 114.33 L18.25 114.33 A3.45351 3.35118 -180 0 0 21.52 110.82 L21.52 110.81 Z" class="st5"/>
				</g>
				<g id="shape3463-17" transform="translate(28.3086,-24.1007)">
					<title>Sheet.3463</title>
					<path d="M4.11 112.68 A2.40837 2.33701 0 1 1 1.7 110.35 A2.40837 2.33701 0 0 1 4.11 112.68 ZM1.7 120.72 A2.40837
								 2.33701 -180 1 0 4.11 123.05 A2.40512 2.33386 -180 0 0 1.7 120.72 Z" class="st6"/>
				</g>
			</g>
		</g>
	</g>
</svg>
